app/dist/common/images/full-house-resorts.svg

<svg height="18" width="18" xmlns="http://www.w3.org/2000/svg"><path d="m0 0h18v18h-18z" fill="#86784b"/><path d="m14 4h-10v8.02l2-1.91v-4.11h2v6h-2l-2 2h10v-8l-2 1.98v4.02h-2v-2h-2v-2h2v-2h2z" fill="#fff"/></svg>

<!-- by TradingView --><svg xmlns="http://www.w3.org/2000/svg" width="18" height="18"><path fill="#86784B" d="M0 0h18v18H0z"/><path d="M14 4H4v8.02l2-1.91V6h2v6H6l-2 2h10V6l-2 1.98V12h-2v-2H8V8h2V6h2l2-2zm0 0z" fill="#fff"/></svg>
